X: 108103
Q:"Strathspey."
M: C
L: 1/16
K: A
|:\
vA,A,3 vA3uE vF3uE vCuE3 | EA3 B3c dcBA GFED |\
f2 |\
e3Ac3A dcBA Af3 | e3A c3A (efg2) a3uf |
e3Ac3A (3(A2B2A2) (FA3) | EC3 E3F A4 (A3f) |\
e3Ac3A dcBA Af3 | e3Ac3A (efg2) a3e |\
fa3 ce3 Ac3 FA3 | EC3 E3F A4 A4 |]


